svgs/sharp-regular/clipboard.svg

<svg xmlns="http://www.w3.org/2000/svg" viewBox="0 0 384 512"><!--! Font Awesome Pro 6.6.0 by @fontawesome - https://fontawesome.com License - https://fontawesome.com/license (Commercial License) Copyright 2024 Fonticons, Inc. --><path d="M304 64l32 0 48 0 0 48 0 352 0 48-48 0L48 512 0 512l0-48L0 112 0 64l48 0 32 0 33.6 0C121 27.5 153.3 0 192 0s71 27.5 78.4 64L304 64zM48 112l0 352 288 0 0-352-32 0 0 48-112 0L80 160l0-48-32 0zm144-8a24 24 0 1 0 0-48 24 24 0 1 0 0 48z"/></svg>

<svg xmlns="http://www.w3.org/2000/svg" viewBox="0 0 384 512"><!--! Font Awesome Pro 6.4.0 by @fontawesome - https://fontawesome.com License - https://fontawesome.com/license (Commercial License) Copyright 2023 Fonticons, Inc. --><path d="M304 64h32 48v48V464v48H336 48 0V464 112 64H48 80h33.6C121 27.5 153.3 0 192 0s71 27.5 78.4 64H304zM48 112V464H336V112H304v48H192 80V112H48zm144-8a24 24 0 1 0 0-48 24 24 0 1 0 0 48z"/></svg>
